X:4299
T:Let Children Hear The Mighty Deeds
M:4/4
L:1/4
K:A
"^I""^ii"E|c A "^iim7""^V"F "^viio""^IV"E|"^I""^IV"A "^vi""^IV"B "^V""^IV"c "^vim7""^V"e|"^V""^V"c "^vim7""^V"A "^vim7""^V"F "^Eb""^Eb"F|"^V""^V"E3 B/2 c/2|"^V""^Vs4"d "^iim7""^V"d "^V7""^V"c A|"^vim7""^V"F "^iim7""^V"B "^ii""^V"G e/2 d/2|"^V""^V"c "^vim7""^V"c "^vi""^V"B "^ii""^V"G|"^V""^V"A3|]

